X:1
T:Lord Rendle
M:6/4
L:1/4
K:G
 A| A A A/2A/2 A3| A G E D2 D| D D D/2D/2| c3| d B G A2 A/2A/2| A d d/2d/2 c B A|\
 G c B A2 B/2A/2| G F D A c B| A G D| D2||
